Adwaita++-Dark/actions/16/autocorrection.svg

<svg height="16" viewBox="0 0 16 16" width="16" xmlns="http://www.w3.org/2000/svg">
  <path d="m11.646484 1-4.083984 4.0839844-.5839844.5820312-2.3320312 2.3339844-1.75 1.75-.5839844.583984-1.3125 1.3125 3.3535156 3.353516 1.3125-1.3125.5839844-.583984 4.083984-4.0820316.582032-.5839844 4.083984-4.0839844zm-8.146484 1-.53125.96875-.96875.53125.96875.53125.53125.96875.53125-.96875.96875-.53125-.96875-.53125zm8.146484.6777344 1.675782 1.6757812-3.244141 3.2460938-1.6777344-1.6777344z" fill="#e6ddff"/>
</svg>

<svg xmlns="http://www.w3.org/2000/svg" width="16" height="16" viewBox="0 0 16 16">
 <defs>
  <style id="current-color-scheme" type="text/css">
   .ColorScheme-Text { color:#E6DDFF; } .ColorScheme-Highlight { color:#4285f4; }
  </style>
 </defs>
 <path style="fill:currentColor" class="ColorScheme-Text" d="M 11.646484 1 L 7.5625 5.0839844 L 6.9785156 5.6660156 L 4.6464844 8 L 2.8964844 9.75 L 2.3125 10.333984 L 1 11.646484 L 4.3535156 15 L 5.6660156 13.6875 L 6.25 13.103516 L 10.333984 9.0214844 L 10.916016 8.4375 L 15 4.3535156 L 11.646484 1 z M 3.5 2 L 2.96875 2.96875 L 2 3.5 L 2.96875 4.03125 L 3.5 5 L 4.03125 4.03125 L 5 3.5 L 4.03125 2.96875 L 3.5 2 z M 11.646484 2.6777344 L 13.322266 4.3535156 L 10.078125 7.5996094 L 8.4003906 5.921875 L 11.646484 2.6777344 z"/>
</svg>
